src/lib/packages/icons/src/assets/line/deviantart.svg

<svg width="24" height="24" viewBox="0 0 24 24" fill="none" xmlns="http://www.w3.org/2000/svg">
<path d="M17.75 6.60001V3C17.75 2.59 17.41 2.25 16.99 2.25H13.84C13.64 2.25 13.46 2.32999 13.32 2.45999L12.98 2.79001C12.93 2.84001 12.88 2.91 12.84 2.97L11.34 5.79001L11.23 5.85001H5.98996C5.57996 5.85001 5.23996 6.19001 5.23996 6.60001V11.1C5.23996 11.51 5.57996 11.85 5.98996 11.85H8.09998L5.31998 17.06C5.25998 17.17 5.22998 17.29 5.22998 17.41V21C5.22998 21.2 5.30998 21.39 5.44998 21.53C5.58998 21.67 5.77998 21.75 5.97998 21.75H9.13998C9.33998 21.75 9.51997 21.67 9.65997 21.54L9.99997 21.21C10.06 21.16 10.1 21.09 10.14 21.03L11.65 18.21L11.75 18.15H16.99C17.4 18.15 17.74 17.81 17.74 17.4V12.91C17.74 12.5 17.4 12.16 16.99 12.16H14.88L17.65 6.95999C17.71 6.84999 17.74 6.72999 17.74 6.60999L17.75 6.60001ZM16.25 6.41L13.13 12.26C12.97 12.55 13.03 12.92 13.27 13.15L13.56 13.44C13.7 13.58 13.89 13.65 14.09 13.65H16.25V16.64H11.56C11.43 16.64 11.3 16.67 11.19 16.74L10.73 17C10.61 17.07 10.51 17.17 10.44 17.3L8.88998 20.21L6.74997 20.25V17.6L9.86996 11.75C10.03 11.46 9.96998 11.1 9.72998 10.86L9.42996 10.56C9.28996 10.42 9.09996 10.34 8.89996 10.34H6.74997V7.34H11.44C11.57 7.34 11.7 7.30999 11.81 7.23999L12.28 6.97C12.4 6.9 12.5 6.80001 12.57 6.67001L14.12 3.76001L16.25 3.73001V6.39001V6.41Z" fill="currentColor"/>
</svg>

<svg xmlns="http://www.w3.org/2000/svg" width="24" height="24" fill="none"><path fill="currentColor" d="M17.75 6.6V3c0-.41-.34-.75-.76-.75h-3.15c-.2 0-.38.08-.52.21l-.34.33c-.05.05-.1.12-.14.18l-1.5 2.82-.11.06H5.99c-.41 0-.75.34-.75.75v4.5c0 .41.34.75.75.75H8.1l-2.78 5.21a.73.73 0 0 0-.09.35V21a.75.75 0 0 0 .75.75h3.16c.2 0 .38-.08.52-.21l.34-.33c.06-.05.1-.12.14-.18l1.51-2.82.1-.06h5.24c.41 0 .75-.34.75-.75v-4.49c0-.41-.34-.75-.75-.75h-2.11l2.77-5.2a.73.73 0 0 0 .09-.35l.01-.01Zm-1.5-.19-3.12 5.85c-.16.29-.1.66.14.89l.29.29c.14.14.33.21.53.21h2.16v2.99h-4.69c-.13 0-.26.03-.37.1l-.46.26c-.12.07-.22.17-.29.3l-1.55 2.91-2.14.04V17.6l3.12-5.85c.16-.29.1-.65-.14-.89l-.3-.3a.75.75 0 0 0-.53-.22H6.75v-3h4.69c.13 0 .26-.03.37-.1l.47-.27c.12-.07.22-.17.29-.3l1.55-2.91 2.13-.03v2.68Z"/></svg>
